X:217
%%etbk:tnset id:67,pos:2,rep:3x,ant:
%%etbk:wsite http://www.thesession.org/tunes/display/56
%%etbk:pldat 2015-04-22T15:52,2014-12-28T14:24,2014-11-18T16:51,2014-05-09T18:45,2014-04-30T16:54,2014-04-26T17:00,2014-02-16T13:45,2014-02-10T18:14,2013-09-17T10:04
T: Old Favourite, The
Z: Piano Box Version by Martin Fleischmann
H: Created 2013-02-19 /  Last Modified 2013-02-19
M: 6/8
L: 1/8
R: jig
K: Gmaj
|: "G"!2!BBB !2!BAB | !4!dB!1!A !1!G2!4!d | !4!ded ded | !4!ded !2!B2A |
!2!B2B BAB | !4!dB!1!A !1!G2!4!d | !1!d!4!g!2!e "D"!1!d!3!B!2!A | "G"!1!GAG G3:|
|: "G"!4!gGg !3!fgf | !2!efe !1!d2d | !1!d{g}ed ded | de!1!d !2!B2!1!d |
!4!g!3!g!4!g !3!fgf | !2!efe !1!d3 |1 !1!d!4!g!2!e !1!d!3!B!2!A | !1!GAG G3:|2 !1!d!4!g!2!e dge | dge !1!d!2!B!1!A |


